dist/svgs/align-left.svg

<svg xmlns="http://www.w3.org/2000/svg" viewBox="0 0 512 512"><path d="M0 373h153v65H0v-65zM512 80v65H0V80h512zM0 226h341v66H0v-66z"/></svg>

<?xml version="1.0" encoding="UTF-8" standalone="no"?><svg   xmlns:svg="http://www.w3.org/2000/svg"   xmlns="http://www.w3.org/2000/svg"   version="1.1"   width="512"   height="512"   viewBox="0 0 512 512">  <path     d="M0 373H153V438H0V373zM512 80V145H0V80H512zM0 226H341V292H0V226z"     id="align-left" /></svg>
